X: 83
T: Waterloo
B: canberra pickers and fiddlers
B: old time tunes update
B: tunes
M:4/4
R: hornpipe
Q: 1/4=100
K:D
V:1 
(AG)|(FG)wEwF (DF)wAwd|(cd)wBwc (Ac)wewg|(fg)wewf (de)wcwd|BcAB GBAG|
(FG)wEwF (DF)wAwd|(cd)wBwc (Ac)wewg|fage dfec|d2 d2 d2:|
(de)|(fe)wdwf (ed)wcwe|(dc)wBwd (cB)wAwc|(BA)wGwB (AG)wFwA|GFGE DCB,A,|
(FG)wEwF (DF)wAwd|(cd)wBwc (Ac)wewg|fage dfec|d2 d2 d2:|
% abcbook-tune_id 67a7d9eca7f07caf16c11664
% abcbook-tune_composer_id 
% abcbook-link-0 https://www.youtube.com/watch?v=gcUloGjSf8U
% abcbook-link-title-0 Waterloo - Skeleton Keys
% abcbook-boost 0
% abcbook-difficulty 0
% abcbook-tags old time tunes
% abcbook-tablature 
% abcbook-transpose -5
% abcbook-tuning AEAE
% abcbook-lastupdated 1739246106635
% abcbook-src-url 
% abcbook-soundfonts 
% abcbook-repeats 1
%%MIDI transpose -5


